app/dist/common/images/molina-healthcare.svg

<svg height="18" width="18" xmlns="http://www.w3.org/2000/svg"><path d="m0 0h18v18h-18z" fill="#009fab"/><path d="m11.834 6.401a1.2 1.2 0 1 0 0-2.401 1.2 1.2 0 0 0 0 2.401zm-4.087 0a1.2 1.2 0 1 0 0-2.401 1.2 1.2 0 0 0 0 2.401zm2.253 6.601h-3v-4.856c-.01-.851-.973-1.146-.973-1.146h1.838c.636 0 2.135.26 2.135 1.418zm3.994 0h-2.974v-4.856c-.01-.851-.99-1.146-.99-1.146h1.853c.642 0 2.11.26 2.11 1.418v4.584zm-7.994 0h-2v-3.153c-.007-.627-.67-.845-.67-.845h1.396c.392 0 1.274.193 1.274 1.046v2.95zm-1.214-4.575c.486 0 .879-.414.879-.926 0-.511-.393-.926-.879-.926-.485 0-.878.415-.878.926 0 .512.393.926.878.926z" fill="#fff"/></svg>

<!-- by TradingView --><svg width="18" height="18" xmlns="http://www.w3.org/2000/svg"><path fill="#009FAB" d="M0 0h18v18H0z"/><path d="M11.834 6.401a1.2 1.2 0 100-2.401 1.2 1.2 0 000 2.401zM7.747 6.401a1.2 1.2 0 100-2.401 1.2 1.2 0 000 2.401zM10 13.002H7V8.146C6.99 7.295 6.027 7 6.027 7h1.838C8.501 7 10 7.26 10 8.418v4.584zM13.994 13.002H11.02V8.146C11.01 7.295 10.03 7 10.03 7h1.853c.642 0 2.11.26 2.11 1.418v4.584zM6 13.002H4V9.849c-.007-.627-.67-.845-.67-.845h1.396C5.118 9.004 6 9.197 6 10.05V13zM4.786 8.427c.486 0 .879-.414.879-.926 0-.511-.393-.926-.879-.926-.485 0-.878.415-.878.926 0 .512.393.926.878.926z" fill="#fff"/></svg>
